X:1
T:[ID 1-10]
T:[ID 1-10]
T:Bezeichnung standardisiert: Menuett Men\"uet
T:Urheber unbekannt Datum in der hier transkribierten schriftlichen Quelle: vermutlich vor 1767
C:Urheber unbekannt
C:Datum in der hier transkribierten schriftlichen Quelle: vermutlich vor 1767
L:1/8
M:3/4
K:D
V:1 treble 
V:1
 d2 c2 de | A4 A2 | (BAB)(gfg) | e4 A2 | a^gacBa | gfgBAg | fefABc | d4 :: a^gaece | A6 | %10
 a^gac"^?"[Ad]e | A6 | E2 A2 B2 | c4 B2 | AcBdce | AcBdce | E2 A2 ^G2 | A6 | dcdAFA | D6 | dcdFGA | %21
 D6 | A,DCEDF | EGFAGB | A2 d2 c2 | d4 :| %26

